img/speed-ellipse.svg

<svg width="54" height="43" viewBox="0 0 54 43" fill="none" xmlns="http://www.w3.org/2000/svg">
<path d="M24.6744 22.465C24.0218 21.0604 24.627 19.397 26.0195 18.7568C27.4089 18.1179 29.0668 18.7408 29.7194 20.1454L43.4803 27.8174L28.223 23.9233C26.8652 24.4464 25.3029 23.8179 24.6744 22.465Z" fill="#030104"/>
<g filter="url(#filter0_d)">
<path d="M10.7365 6.73144C15.0808 2.39058 20.8566 0 27 0C33.1435 0 38.9194 2.39058 43.2636 6.73144C47.6077 11.0723 50 16.8437 50 22.9826C50 26.9463 49.0006 30.7557 47.1243 34.1266H42.8255L39.6813 32.3126L41.0699 29.9092L45.1128 32.2418C46.5411 29.463 47.348 26.3153 47.348 22.9826C47.348 22.3928 47.3212 21.8091 47.2717 21.2318L42.4511 22.0811L41.9689 19.3482L46.8462 18.4889C45.9747 14.6438 44.0096 11.2089 41.296 8.52879L37.9915 12.4642L35.864 10.6804L39.1936 6.71536C36.1404 4.42444 32.4238 2.97148 28.3885 2.69855V7.96182H25.6115V2.69855C21.5762 2.9717 17.8596 4.42454 14.8063 6.71547L18.136 10.6804L16.0086 12.4642L12.704 8.52869C9.99049 11.2089 8.02544 14.6438 7.1539 18.4888L12.0311 19.3483L11.5488 22.081L6.72849 21.2316C6.67905 21.809 6.65224 22.3925 6.65224 22.9823C6.65224 26.3153 7.45879 29.4631 8.88732 32.2417L12.9303 29.9093L14.3188 32.3126L11.1747 34.1264H6.87572C4.99926 30.7555 4 26.9461 4 22.9823C3.99989 16.8436 6.3925 11.0721 10.7365 6.73144Z" fill="#030104"/>
</g>
<defs>
<filter id="filter0_d" x="0" y="0" width="54" height="42.1266" filterUnits="userSpaceOnUse" color-interpolation-filters="sRGB">
<feFlood flood-opacity="0" result="BackgroundImageFix"/>
<feColorMatrix in="SourceAlpha" type="matrix" values="0 0 0 0 0 0 0 0 0 0 0 0 0 0 0 0 0 0 127 0"/>
<feOffset dy="4"/>
<feGaussianBlur stdDeviation="2"/>
<feColorMatrix type="matrix" values="0 0 0 0 0 0 0 0 0 0 0 0 0 0 0 0 0 0 0.25 0"/>
<feBlend mode="normal" in2="BackgroundImageFix" result="effect1_dropShadow"/>
<feBlend mode="normal" in="SourceGraphic" in2="effect1_dropShadow" result="shape"/>
</filter>
</defs>
</svg>

<svg width="54" height="43" fill="none" xmlns="http://www.w3.org/2000/svg"><path d="M24.674 22.465c-.652-1.405-.047-3.068 1.346-3.708 1.389-.64 3.047-.016 3.7 1.388l13.76 7.672-15.257-3.894c-1.358.523-2.92-.105-3.549-1.458z" fill="#030104"/><g filter="url(#filter0_d)"><path d="M10.736 6.731A22.859 22.859 0 0127 0c6.144 0 11.92 2.39 16.264 6.731A22.823 22.823 0 0150 22.983c0 3.963-1 7.773-2.876 11.144h-4.299l-3.144-1.814 1.389-2.404 4.043 2.333a20.197 20.197 0 002.159-11.01l-4.82.85-.483-2.734 4.877-.86a20.32 20.32 0 00-5.55-9.96l-3.304 3.936-2.128-1.784 3.33-3.965A20.245 20.245 0 0028.388 2.7v5.263h-2.777V2.699a20.248 20.248 0 00-10.805 4.016l3.33 3.965-2.127 1.784-3.305-3.935a20.322 20.322 0 00-5.55 9.96l4.877.86-.482 2.732-4.82-.85a20.194 20.194 0 002.159 11.01l4.042-2.332 1.389 2.404-3.144 1.813h-4.3A22.836 22.836 0 014 22.982c0-6.138 2.393-11.91 6.736-16.25z" fill="#030104"/></g><defs><filter id="filter0_d" x="0" y="0" width="54" height="42.127" filterUnits="userSpaceOnUse" color-interpolation-filters="sRGB"><feFlood flood-opacity="0" result="BackgroundImageFix"/><feColorMatrix in="SourceAlpha" values="0 0 0 0 0 0 0 0 0 0 0 0 0 0 0 0 0 0 127 0"/><feOffset dy="4"/><feGaussianBlur stdDeviation="2"/><feColorMatrix values="0 0 0 0 0 0 0 0 0 0 0 0 0 0 0 0 0 0 0.25 0"/><feBlend in2="BackgroundImageFix" result="effect1_dropShadow"/><feBlend in="SourceGraphic" in2="effect1_dropShadow" result="shape"/></filter></defs></svg>
